packages/core/src/svgs/fort.svg

<svg width="24" height="24" viewBox="0 0 24 24" fill="none" xmlns="http://www.w3.org/2000/svg">
<g clip-path="url(#clip0_31_10447)">
<path d="M0 0H24V24H0V0Z" fill="url(#paint0_linear_31_10447)"/>
<path d="M13.9586 9.47592C13.5644 8.15592 13.6415 6.03449 13.7315 5.14307H10.2344C10.5515 6.97735 10.2858 8.79878 10.1101 9.47592C8.26721 9.47592 6.48007 8.69164 5.81578 8.29735L4.71436 11.6316C7.23864 12.0731 8.52436 12.8059 8.85007 13.1188C8.38721 14.5631 7.03721 16.1359 6.42007 16.7445L9.21436 18.8574C10.3072 16.9674 11.5286 15.7845 12.0044 15.4288C13.3544 16.3416 14.4044 18.0945 14.7558 18.8574L17.5586 16.7445C16.1015 15.2488 15.3472 13.7016 15.1544 13.1188C16.5558 12.2531 18.4929 11.7688 19.2858 11.6316L18.1972 8.29735C16.7101 9.02164 14.7515 9.38592 13.9544 9.47592H13.9586Z" fill="white"/>
</g>
<defs>
<linearGradient id="paint0_linear_31_10447" x1="4.46571" y1="4.16143" x2="29.2071" y2="32.58" gradientUnits="userSpaceOnUse">
<stop stop-color="#1A1E21"/>
<stop offset="1" stop-color="#06060A"/>
</linearGradient>
<clipPath id="clip0_31_10447">
<rect width="24" height="24" fill="white"/>
</clipPath>
</defs>
</svg>

<svg xmlns="http://www.w3.org/2000/svg" width="24" height="24" fill="none" viewBox="0 0 24 24"><g clip-path="url(#a)"><path fill="url(#b)" d="M0 0h24v24H0z"/><path fill="#fff" d="M13.959 9.476c-.395-1.32-.317-3.442-.227-4.333h-3.498c.318 1.834.052 3.656-.124 4.333-1.843 0-3.63-.784-4.294-1.179l-1.102 3.335c2.525.441 3.81 1.174 4.136 1.487-.463 1.444-1.813 3.017-2.43 3.625l2.794 2.113c1.093-1.89 2.315-3.072 2.79-3.428 1.35.913 2.4 2.665 2.752 3.428l2.803-2.113c-1.457-1.495-2.212-3.042-2.405-3.625 1.402-.866 3.339-1.35 4.132-1.487l-1.089-3.335c-1.487.725-3.445 1.089-4.243 1.179z"/></g><defs><linearGradient id="b" x1="4.466" x2="29.207" y1="4.161" y2="32.58" gradientUnits="userSpaceOnUse"><stop stop-color="#1A1E21"/><stop offset="1" stop-color="#06060A"/></linearGradient><clipPath id="a"><path fill="#fff" d="M0 0h24v24H0z"/></clipPath></defs></svg>
